X:1
T: Kiss me Kate
C:
R:Reel
Q: 232
K:G
M:4/4
L:1/8
D|G2 Bd gd BG|D2 GB AE EF|G2 Bd gd Bd|ec Bc AD EF|
G2 Bd gd BG|D2 GB AE EF|G2 Bd gd Bd|ec Ac BG Gg|
|:fg ag fd dg|fg ag bg eg|fg ag fd dg|fd ef g2 dg|
((3gab) af g2 bg|fg ag fd dg|fd ed fd ed|1fd ef ge dg:|2fd ef ge dB|
G2 Bd gd BG|D2 GB AE EF|G2 Bd gd Bd|ec Bc AD EF|
G2 Bd gd BG|D2 GB AE EF|G2 Bd gd Bd|ec Ac BG G||
